icon/cg/display-spacing.svg

<svg width="24" height="24" fill="none" xmlns="http://www.w3.org/2000/svg"><path d="M3 21V3h2v18H3Z" fill="currentColor"/><path fill-rule="evenodd" clip-rule="evenodd" d="M7 3h10v18H7V3Zm2 2v14h6V5H9Z" fill="currentColor"/><path d="M19 3v18h2V3h-2Z" fill="currentColor"/></svg>

<svg viewBox="0 0 24 24" fill="none" xmlns="http://www.w3.org/2000/svg" height="1em" width="1em">
  <path d="M3 21V3H5V21H3Z" fill="currentColor"/>
  <path fill-rule="evenodd" clip-rule="evenodd" d="M7 3H17V21H7V3ZM9 5V19H15V5H9Z" fill="currentColor"/>
  <path d="M19 3V21H21V3H19Z" fill="currentColor"/>
</svg>
